X:1
T:Audi dulcis amica
T:Bartolomeo Barbarino
T:Source : Ghirlanda Sacra---Venetia---B.Magni ( Ang.Gardano)---1625. Editor : André Vierendeels (11/10/18) Notes : Original clefs : C1, F4 Original note values have been quartered in 3-beat measures Dotted brackets indicate black notes Editorial accidentals above the staff Music collected by Leonardo Simonetti Composer known as " il Pesarino" 
T:Audi dulcis amica
T:©
T:©
T:©
T:©
T:©
T:©
T:©
T:©
C:Bartolomeo Barbarino
Z:©
%%score 1 2
L:1/8
Q:1/4=120
M:2/2
K:F
V:1 treble nm="Soprano" snm="S"
V:2 bass nm="MusicXML Part"
V:1
 z8 | z8 | z8 | z8 | z8 | z8 | z8 | z8 | G2 A2 B<A c<G | A8 | z2 d4 AA | B6 G/F/G/A/ | %12
w: ||||||||Au- * * * * *|di,|Dul- cis a-|mi- ca _ _ _|
 B>c B>c d2 e/d/c/B/ | A8 | z2 B3 c d2 | _e2 dc B2 c2 | d4 _e3 d | d2 c/B/A/G/ c/B/c/B/ A2 | G8 | %19
w: me- * * * * * * * *|a,|au- ri- bus|per- * * * ci-|pe ver- ba|o- ris _ _ _ me- * * * *|i.|
[M:6/4] B4 c2 d2 d2 cB | A4 Bc dc dB cA | Bc de c2 B4 d2 | cB cd B2 A4 G2 | AB c2 =B2 c4 A2 | %24
w: Ni- gra es, sed for- *|mo- * * * * * * * *|* * * * * sa et|ma- * * * cu- la non|est _ _ in te, non|
 Bc d2 c2 d4 D2 |"^#" EF G2 F2 G6 | z12 | z12 | z12 |[M:2/2] B6 TA>G | A4- Addc | =B4 c4 | %32
w: est _ _ in te, non|est _ _ in te.||||I- * de-|o _ a- mo- re|tu- o|
 c>d c>d c2- Tc>=B | c4- cccB | A4 Addc | B4 B4 | c2 d4- Td>G | A6 A2 | B2 B2 c3 B | A2 c2 c2 c2 | %40
w: lan- * * * * * gue-|o, _ a- mo- re|tu- o, a- mo- re|tu- o|lan- * * gue-|o et|qui- a tri- bu-|lor ex- au- di|
 d3 c B2 d2- | d2 cB c4- | c2 B/A/c/B/ A/d/B/c/ A2 | G8 | z8 | z8 | z8 | z8 | z8 | %49
w: de- pre- cor o-|* ra- ti- o-|* nem _ _ _ _ _ _ _ me-|am.||||||
 G4 G/A/B/c/ d/e/f/g/ | A4 dcBA | B3 B BGAB | c3 B A2 A2 | de/d/ cd/c/ Bc/B/ AB/A/ | %54
w: Ve- * * * * * * * *|ni, ve- ni, ple- na|gra- ti- a in mu- li-|e- ri- bus, de-|scen- * * * * * * * * * * *|
 G2 AB cd/c/ Bc/B/ | A2 Bc d2 e2 | c4 cABc | d2 cB c<B c<A | BGAB c2 Bc | d>e c4 B2 | c8 | z8 | %62
w: |* de in hor- tum|me- um, u- bi sunt|flo- res et li- * li- *|a, u- bi sunt flo- res et|li- * * li-|a.||
 z8 | z8 | z8 | z8 | z8 | z8 | z4 d2 cB | A2 d2 B2 B2 | _e2 dc BABA | B6 dc | B2 AG F2 G2 | %73
w: ||||||Ve- ni di-|lec- ta me- a,|ve- ni co- tro- na- be- ris|Spec- ci- o-|* * * * sa|
 A2 A2 AGAB |"^-natural" c2 dc c2 B2 | c4 GFGA | B2 cB A4 | G6 G2 | A3 A AdcB | c4 c2 A2 | %80
w: ni- mis in- tra in cu-|bi- cu- lum _ me-|um, in- tra in cu-|bi- cu- lum me-|um et|quo- ni- am tu es spes|me- a, in|
 Bc d4 c2 | d4 BGAB | c4 cABc | d2 cd e2 de | fedc d4- | d2 cB A4 | G4- GBcd | %87
w: te spe- ra- *|vi, fi- at su- per|me, fi- at su- per|me, su- per me, su- per|me mi- se- ri- cor-|* di- a tu-|a, _ mi- se- ri-|
 _e/B/c/d/ e/d/e/d/ c4- | c2 BA A4 | G8 |] %90
w: cor- * * * * * * * *|* di- a tu-|a.|
V:2
 G,,4 B,,2 G,,2 | D,3 E, F,2 D,2 | G,2 G,,2 B,,2 C,2 | D,2 E,2 F,2 G,2 | A,2 D,2 A,,4 | %5
 D,2 A,,2 B,,2 C,2 | D,2 _E,2 C,2 D,2 |"^b" G,,8 | G,,8 | D,8 | D,2 E,2 ^F,4 | G,8 | G,,8 | D,8 | %14
 B,,4 B,,4 | C,2 D,2 _E,2 D,C, | G,4 C,3 D, | B,,2 B,,>B,, B,,C, D,2 | G,,8 | %19
[M:6/4] G,,4 A,,2 B,,2 B,,2 C,2 | D,4 C,2 B,,4 A,,2 | G,,4 F,,2 B,,4 B,,2 | F,,4 G,,2 D,4 _E,2 | %23
 F,4 G,2 C,4 F,2 | G,4 A,2 D,4 B,,2 | C,4 D,2 G,,6 | G,2 D,2 E,2 F,2 C,2 D,2 | %27
 _E,2 B,,2 C,2 D,2 B,,2 A,,2 | G,,2 D,4 G,,6 |[M:2/2] G,,2 A,,2 B,,2 G,,2 | D,2 E,2 ^F,2 D,2 | %31
 G,2 F,2 E,2 F,2 | G,8 | C,2 D,2 E,4 | F,4 ^F,4 | G,2 F,2 _E,2 D,2 | _E,8 | D,8 | D,4 E,4 | %39
 F,4 F,4 | ^F,4 G,4 | F,4 _E,4 | D,8 | G,,8 | G,2 F,E, D,2 E,2 | F,2 E,D, C,2 D,2 | %46
 _E,2 B,,2 C,2 D,2 | G,,2 A,,2 B,,2 C,2 | D,2 _E,2 D,4 | G,,8 | D,4 ^F,4 |"^b" G,4 G,2 F,2 | %52
 E,4 F,4 | B,,2 A,,2 G,,2 A,,B,, | D,2 B,,2 A,,2 G,,2 | F,,2 G,,A,, B,,4 | F,,4 F,,4 | B,,4 F,,4 | %58
 G,,4 A,,4 | B,,2 C,2 G,,4 | C,4 C,2 B,,A,, | G,,2 C,2 F,,2 B,,2 | C,4 F,,4 | F,2 E,D, C,2 F,2 | %64
 B,,2 _E,2 F,4 | B,,4 B,2 A,G, | ^F,2 G,2 D,2 B,,2 | C,2 A,,2 D,4 | G,,4 G,,4 | D,4 G,4 | %70
 _E,4 F,4 | B,,4 B,,4 | B,,2 C,2 D,2 E,2 | F,4 F,4 | C,4 G,,4 | C,4 C,4 | G,,4 D,4 | G,,6 G,,2 | %78
 D,4 D,2 G,2 | F,4 F,4 | G,4 A,4 | D,4 G,4 | F,4 F,4 | B,,4 C,4 | D,2 E,2 ^F,2 G,2 | %85
 D,2 B,,2 C,2 D,2 | G,,4 G,,4 | C,4 C,4 | D,8 | G,,8 |] %90

